X:86
%%vocalfont Baskerville10Pro 11
%%pagewidth 8.5in
T:Crimson Velvet
M:3/4
L:1/8
K:Bb
%%score (1A 1B) 2A
V:1A clef-treble
V:2A clef-treble stem=up
V:2A clef-bass octave=-1
V:1A
D|G>A [DB](A/G/)[^FA]2|G>A [DB](A/G/) ^FD|B>B [Gc][Ge][Gd]2|
w:It was a youth-ful* knight Lov'd a gal-lant* la-dy, Fair she was and bright,
w:Her-self she did be-*have, So courteously* as* may be, Wedded* they were, brave;
V:1B
x|Dx2x3|Dx2x3|Dx2x3|
V:2A
z|B2G2D2|B,2G,2D,2|G2EC B,>C|
V:1A
[1 B>c AA [B,G]:||[2 B>c [C^FA]A [B,G]2 ||: d>d [EAd]c [DB]2|
w:And of vir-tues rare. Joy with-out com-pare. Here be-gan the grief,
w:||Wo-men lewd of mind,
V:1B
[DG]x4 :|| [DG]x2x3 ||: [D=F]x2x3|
V:2A
D2D,2G, :|| D2D,2G,2 ||: B,2F2B2|
V:1A
A>(Bc)[DB] [^FA]D|G>A [DB]d ([Gc]/B/)(A/G/)|[^FA]4-[FA]A :|| [K:G]
w:Pain with-*out re\-lief; Her husband* soon her love* for* sook,* To
w:Be-ing* bad in\-clin'd, He on-ly lent a plea-*sant* look,* The
V:1B
Dx3x2|Dx3x2|x6|
V:2A
^F>GAG D2|B,2G,2E,2|D,6:||[K:G]
V:1A
A>AAA [A,F]D|A>Adc [DB]G|c>c [DGB]B [CFA]A|[B,G]6|
w:Lady* she sat weeping,* While that he was keeping* Company* with* others* moe.~Her
w:|||[more]
V:1B
[A,E]4x2|D4x2|[CE]x2x3|x6|
V:2A
^C4D2|F,4G,2|A,2D2D2|E>FGFED|
V:1A
A>AAA [A,F]D|A>Adc [DB]G|c>c [DGB]B [CFA]A|[B,G]6||
w:words, My love, be-lieve not, Come to me, and grieve not; Wantons* will thee o-ver-throw.
V:1B
[A,E]4x2|D4x2|[CE]2x4|x6||
V:2A
^C4D2|F,4G,2|A,2D2D,2|G,6||

